X: 301
T: Redwing
B: canberra pickers and fiddlers
B: tunes
M:4/4
L:1/8
R: barndance
Q: 1/4=100
K:G
V:1 
D2|G3D G2 B2|d6 B2|c2 e2 g2 e2|d6 B2|
c2 cB A2 c2|B2 BA G2 B2|A2 E2 F2 G2|A2 F2 E2 D2|
G3D G2 B2|d6 B2|c2 e2 g2 e2|d6 B2|
c2 cB A2 c2|B2 BA G2 B2|A2 E2 F2 D2|G4 g2 f2||
e4 c4|e2 g2 f2 e2|d4 B4-|B2 d2 e2 d2|
d4 A4-|A2 d2 e2 d2|d4 B4-|B2 g2 f2 =f2|
e4 c4|e2 g2 ^f2 e2|d4 B4-|B2 d2 e2 d2|
d4 A4-|A2 c2 B2 A2|G8-|G4 z2||
% abcbook-tune_id 63da59342e1165594e40c467
% abcbook-tune_composer_id 
% abcbook-link-0 https://www.youtube.com/watch?v=2Vwqlj0OV-g
% abcbook-link-end-at-0 43
% abcbook-boost 0
% abcbook-difficulty 0
% abcbook-tags canberra pickers and fiddlers,old time tunes,© free
% abcbook-tablature 
% abcbook-transpose 
% abcbook-tuning GDAD
% abcbook-lastupdated 1703029029508
% abcbook-src-url https://tunebook.net/scrape/tunes.abc
% abcbook-soundfonts 
% abcbook-repeats 1
%%gchordfont "itim-music,Itim" 20

